X:1
T:Title
%%score 1 { 2 | 3 }
L:1/8
Q:1/4=75
M:2/4
K:D
V:1 treble nm="Grand Piano, Soprano"
V:2 bass nm="Choir Pad, Grand Rapids, 77.77 D"
V:3 bass 
V:1
 [DF]D [DG][DF] | [CA][CA] [CE]2 | [EG][CE] [EG][GB] | [GB][FA] [DF]2 | [FA][DF] [Fd][FA] | %5
w: By~Daniel~Brink~Towner,~1899 * * *|||||
 [Ac][GB] [GB]2 | [FA]/[GB]/[Gc]/[Fd]/ [FA][DF] | [CE]>D D2 | [CE]/[DF]/[EG]/[FA]/ [GB][FA] | %9
w: ||||
 [DF][FA] [Fd]2 | [CE]/[DF]/[EG]/[FA]/ [GB][FA] | [DF][FA] [Fd]2 | [Fd]>[Fc] [Ge][Fd] | %13
w: ||||
 [Ac][GB] [GB]2 | [FA]/[GB]/[Gc]/[Fd]/ [FA][DF] | [CE]>D D2- | D2 z2 |] %17
w: ||||
V:2
 A,F, B,A, | G,E, A,2 | A,A,[K:treble] CC | DD A,2 | DA, A,D | DD D2 | D[K:bass]A, DA, | %7
 G,>F, F,2 | A,A,[K:treble] CD | DD A,2 | A,A, CD | DD[K:bass] A,2 | A,>A, DD | DD D2 | %14
 DA,[K:bass] DA, | G,>F, F,2 | z4 |] %17
V:3
 D,D, D,D, | A,,A,, A,,2 | A,,A,, A,,A,, | D,D, D,2 | D,D, D,D, | G,G, G,2 | D,/G,/E,/D,/ D,D, | %7
 A,,>D, D,2 | z2 A,A, | D,D, D,2 | z2 A,A, | D,D, D,2 | D,>D, D,D, | G,G, G,2 | D,/G,/E,/D,/ D,D, | %15
 A,,>D, D,2 | z4 |] %17

